X:1
T:Chevy Chase
M:3/4
L:1/8
K:G
 A| BA G3 A| BA G3 B| ce d3 B| A4 z B| ce d3 B| dB G3 d| eg B2 A2|\
 G4 z||
